icons/arrow-duo-down.svg

<svg width="24" height="24" viewBox="0 0 24 24" fill="none" xmlns="http://www.w3.org/2000/svg">
<path fill-rule="evenodd" clip-rule="evenodd" d="M18.25 12.55C17.8358 12.55 17.5 12.2143 17.5 11.8L17.5 5.80007C17.5 5.38586 17.8358 5.05007 18.25 5.05007C18.6642 5.05007 19 5.38586 19 5.80007L19 11.8C19 12.2143 18.6642 12.55 18.25 12.55Z" fill="black"/>
<path fill-rule="evenodd" clip-rule="evenodd" d="M18.3 11.5894L15.9804 9.26974C15.6875 8.97685 15.2126 8.97685 14.9197 9.26974C14.6268 9.56264 14.6268 10.0375 14.9197 10.3304L17.4197 12.8304C17.9126 13.3233 18.6875 13.3233 19.1804 12.8304L21.6804 10.3304C21.9732 10.0375 21.9732 9.56264 21.6804 9.26974C21.3875 8.97685 20.9126 8.97685 20.6197 9.26974L18.3 11.5894Z" fill="black"/>
<path fill-rule="evenodd" clip-rule="evenodd" d="M7.94995 17.7501C7.53574 17.7501 7.19995 17.4143 7.19995 17.0001L7.19995 5.80017C7.19995 5.38596 7.53574 5.05017 7.94995 5.05017C8.36417 5.05017 8.69995 5.38596 8.69995 5.80017L8.69995 17.0001C8.69995 17.4143 8.36416 17.7501 7.94995 17.7501Z" fill="black"/>
<path fill-rule="evenodd" clip-rule="evenodd" d="M8.02258 17.443C8.04075 17.4347 8.07472 17.4147 8.11969 17.3697L12.6197 12.8697C12.9126 12.5768 13.3875 12.5768 13.6804 12.8697C13.9732 13.1626 13.9732 13.6375 13.6804 13.9304L9.18035 18.4304C8.86851 18.7422 8.46128 18.9501 8.00002 18.9501C7.53877 18.9501 7.13154 18.7422 6.81969 18.4304L2.3197 13.9304C2.0268 13.6375 2.0268 13.1626 2.3197 12.8697C2.61259 12.5768 3.08746 12.5768 3.38036 12.8697L7.88035 17.3697C7.92533 17.4147 7.9593 17.4347 7.97747 17.443C7.98656 17.4471 7.99252 17.4488 7.99545 17.4494C7.9983 17.4501 7.99964 17.4501 8.00002 17.4501C8.00041 17.4501 8.00174 17.4501 8.0046 17.4494C8.00753 17.4488 8.01349 17.4471 8.02258 17.443Z" fill="black"/>
</svg>

<svg xmlns="http://www.w3.org/2000/svg" fill="none" viewBox="0 0 24 24">
  <path fill="#000" fill-rule="evenodd" d="M18.25 12.55a.75.75 0 0 1-.75-.75v-6a.75.75 0 0 1 1.5 0v6a.75.75 0 0 1-.75.75Z" clip-rule="evenodd"/>
  <path fill="#000" fill-rule="evenodd" d="m18.3 11.59-2.32-2.32a.75.75 0 0 0-1.06 1.06l2.5 2.5a1.233 1.233 0 0 0 1.76 0l2.5-2.5a.75.75 0 0 0-1.06-1.06l-2.32 2.32ZM7.95 17.75A.75.75 0 0 1 7.2 17V5.8a.75.75 0 0 1 1.5 0V17a.75.75 0 0 1-.75.75Z" clip-rule="evenodd"/>
  <path fill="#000" fill-rule="evenodd" d="M8.023 17.443a.351.351 0 0 0 .097-.073l4.5-4.5a.75.75 0 0 1 1.06 1.06l-4.5 4.5c-.311.312-.719.52-1.18.52-.461 0-.868-.208-1.18-.52l-4.5-4.5a.75.75 0 0 1 1.06-1.06l4.5 4.5a.351.351 0 0 0 .097.073.091.091 0 0 0 .023.007h.005a.091.091 0 0 0 .018-.007Z" clip-rule="evenodd"/>
</svg>
